X: 72
M:2/4
L:1/8
K:G
c>de>f | g>fe>f | g>fe>f | g2 g>g |
g>fe>g | f>ed>f | e>d c/d/e | G2 G |
c>Bc>e | efgf | edcB | c3 :: G2 |
cceg | cceg | c/d/c/d/ c/d/c/d/ | c/d/c/d/ eg |
c/d/c/d/ c/d/c/d/ | c/d/c/d/ eg | c/d/c/d/ eg | c/d/c/d/ eg |
g>fe>g | f>ed>f | e>d c/d/e | G2 G2 |
c>Bcd | efgf | edcB | c3 :|


